SVG_Azure_Grouped/Security/Azure MultiFactor Authentication.svg

<?xml version="1.0" encoding="UTF-8" standalone="no"?>
<!-- Generated by Microsoft Visio, SVG Export Azure MultiFactor Authentication.svg Page-1 -->

<svg
   xmlns:dc="http://purl.org/dc/elements/1.1/"
   xmlns:cc="http://creativecommons.org/ns#"
   xmlns:rdf="http://www.w3.org/1999/02/22-rdf-syntax-ns#"
   xmlns:svg="http://www.w3.org/2000/svg"
   xmlns="http://www.w3.org/2000/svg"
   xmlns:sodipodi="http://sodipodi.sourceforge.net/DTD/sodipodi-0.dtd"
   xmlns:inkscape="http://www.inkscape.org/namespaces/inkscape"
   width="0.59055364in"
   height="0.78734457in"
   viewBox="0 0 42.520003 56.688892"
   xml:space="preserve"
   class="st2"
   version="1.1"
   id="svg27"
   sodipodi:docname="Azure MultiFactor Authentication.svg"
   style="font-size:12px;overflow:visible;color-interpolation-filters:sRGB;fill:none;fill-rule:evenodd;stroke-linecap:square;stroke-miterlimit:3"
   inkscape:version="0.92.5 (2060ec1f9f, 2020-04-08)"><metadata
   id="metadata33"><rdf:RDF><cc:Work
       rdf:about=""><dc:format>image/svg+xml</dc:format><dc:type
         rdf:resource="http://purl.org/dc/dcmitype/StillImage" /></cc:Work></rdf:RDF></metadata><defs
   id="defs31" /><sodipodi:namedview
   pagecolor="#ffffff"
   bordercolor="#666666"
   borderopacity="1"
   objecttolerance="10"
   gridtolerance="10"
   guidetolerance="10"
   inkscape:pageopacity="0"
   inkscape:pageshadow="2"
   inkscape:window-width="640"
   inkscape:window-height="480"
   id="namedview29"
   showgrid="false"
   inkscape:zoom="1.3024972"
   inkscape:cx="28.346572"
   inkscape:cy="37.791207"
   inkscape:window-x="0"
   inkscape:window-y="0"
   inkscape:window-maximized="0"
   inkscape:current-layer="svg27" />
	<style
   type="text/css"
   id="style2">
	<![CDATA[
		.st1 {fill:#0078d7;stroke:none;stroke-linecap:butt;stroke-width:39.6}
		.st2 {fill:none;fill-rule:evenodd;font-size:12px;overflow:visible;stroke-linecap:square;stroke-miterlimit:3}
	]]>
	</style>

	<g
   id="g25"
   transform="translate(-39.6,-39.601125)">
		<title
   id="title4">Page-1</title>
		<g
   id="group16893-1"
   transform="translate(39.6,-39.6)">
			<title
   id="title6">Azure MultiFactor Authentication.16893</title>
			<g
   id="group16894-2">
				<title
   id="title8"> MFA_Icon</title>
				<g
   id="group16895-3">
					<title
   id="title10">Sheet.16895</title>
					<g
   id="shape16896-4"
   transform="translate(7.08661,-41.8145)">
						<title
   id="title12">Sheet.16896</title>
						<path
   d="m 14.17,126.39 a 8.78445,8.77171 0 0 1 8.78,8.55 c 1.75,0.24 3.55,0.55 5.38,0.95 0.01,-0.24 0.02,-0.48 0.02,-0.72 a 14.175,14.154497 -180 1 0 -28.35,0 c 0,0.23 0.01,0.45 0.02,0.68 1.57,-0.34 3.38,-0.67 5.39,-0.93 a 8.78445,8.77171 0 0 1 8.76,-8.53 z"
   class="st1"
   id="path14"
   inkscape:connector-curvature="0"
   style="fill:#0078d7;stroke:none;stroke-width:39.59999847;stroke-linecap:butt" />
					</g>
					<g
   id="shape16897-6">
						<title
   id="title17">Sheet.16897</title>
						<path
   d="m 0,98.73 v 5.31 a 34.6211,34.5709 -180 0 0 21.26,31.85 34.6211,34.5709 -180 0 0 21.26,-31.85 V 98.73 A 65.0912,64.9968 -180 0 0 0,98.73 Z m 28.35,21.29 H 14.17 v -0.94 a 7.09797,7.08768 0 0 1 4.81,-6.7 5.31496,5.30725 0 1 1 4.55,0 7.09797,7.08768 0 0 1 4.82,6.7 z"
   class="st1"
   id="path19"
   inkscape:connector-curvature="0"
   style="fill:#0078d7;stroke:none;stroke-width:39.59999847;stroke-linecap:butt" />
					</g>
				</g>
			</g>
		</g>
	</g>
</svg>

<?xml version="1.0" encoding="UTF-8" standalone="no"?>
<!DOCTYPE svg PUBLIC "-//W3C//DTD SVG 1.1//EN" "http://www.w3.org/Graphics/SVG/1.1/DTD/svg11.dtd">
<!-- Generated by Microsoft Visio, SVG Export Azure MultiFactor Authentication.svg Page-1 -->
<svg xmlns="http://www.w3.org/2000/svg" xmlns:xlink="http://www.w3.org/1999/xlink" xmlns:ev="http://www.w3.org/2001/xml-events"
		width="1.69055in" height="1.8874in" viewBox="0 0 121.72 135.893" xml:space="preserve" color-interpolation-filters="sRGB"
		class="st2">
	<style type="text/css">
	<![CDATA[
		.st1 {fill:#0078d7;stroke:none;stroke-linecap:butt;stroke-width:39.6}
		.st2 {fill:none;fill-rule:evenodd;font-size:12px;overflow:visible;stroke-linecap:square;stroke-miterlimit:3}
	]]>
	</style>

	<g>
		<title>Page-1</title>
		<g id="group16500-1" transform="translate(39.6,-39.6)">
			<title>Azure MultiFactor Authentication.16500</title>
			<g id="group16501-2">
				<title> MFA_Icon</title>
				<g id="group16502-3">
					<title>Sheet.16502</title>
					<g id="shape16503-4" transform="translate(7.08661,-41.8145)">
						<title>Sheet.16503</title>
						<path d="M14.17 126.39 A8.78445 8.77171 0 0 1 22.95 134.94 C24.7 135.18 26.5 135.49 28.33 135.89 C28.34 135.65
									 28.35 135.41 28.35 135.17 A14.1732 14.1527 -180 1 0 0 135.17 C0 135.4 0.01 135.62 0.02 135.85
									 C1.59 135.51 3.4 135.18 5.41 134.92 A8.78445 8.77171 0 0 1 14.17 126.39 Z" class="st1"/>
					</g>
					<g id="shape16504-6">
						<title>Sheet.16504</title>
						<path d="M0 98.73 L0 104.04 A34.6211 34.5709 -180 0 0 21.26 135.89 A34.6211 34.5709 -180 0 0 42.52 104.04
									 L42.52 98.73 A65.0912 64.9968 -180 0 0 -0 98.73 ZM28.35 120.02 L14.17 120.02 L14.17 119.08 A7.09797
									 7.08768 0 0 1 18.98 112.38 A5.31496 5.30725 0 1 1 23.53 112.38 A7.09797 7.08768 0 0 1 28.35
									 119.08 L28.35 120.02 Z" class="st1"/>
					</g>
				</g>
			</g>
		</g>
	</g>
</svg>
